xd/_MG_6002.xmp
<?xml version="1.0" encoding="utf-8"?>
<x:xmpmeta xmlns:crs="http://ns.adobe.com/camera-raw-settings/1.0/" xmlns:dc="http://purl.org/dc/elements/1.1/" xmlns:ns10="http://ns.adobe.com/camera-raw-defaults/1.0/" xmlns:ns12="http://ns.adobe.com/xap/1.0/sType/ResourceEvent#" xmlns:ns3="http://ns.adobe.com/tiff/1.0/" xmlns:ns4="http://ns.adobe.com/exif/1.0/" xmlns:ns6="http://ns.adobe.com/exif/1.0/aux/" xmlns:ns7="http://cipa.jp/exif/1.0/" xmlns:ns8="http://ns.adobe.com/photoshop/1.0/" xmlns:ns9="http://ns.adobe.com/xap/1.0/mm/" xmlns:rdf="http://www.w3.org/1999/02/22-rdf-syntax-ns#" xmlns:x="adobe:ns:meta/" xmlns:xmp="http://ns.adobe.com/xap/1.0/" x:xmptk="Adobe XMP Core 7.0-c000 1.000000, 0000/00/00-00:00:00        ">
  
 
  <rdf:RDF>
    
  
    <rdf:Description rdf:about="" xmp:Rating="2" xmp:CreateDate="2023-12-23T14:45:48.60" xmp:ModifyDate="2023-12-23T14:45:48.60" xmp:MetadataDate="2024-12-16T13:37:37-06:00" ns3:Make="Canon" ns3:Model="Canon EOS Rebel T6" ns3:Orientation="1" ns3:ImageWidth="5184" ns3:ImageLength="3456" ns4:ExifVersion="0230" ns4:ExposureTime="1/640" ns4:ShutterSpeedValue="9321928/1000000" ns4:FNumber="13/1" ns4:ApertureValue="7400879/1000000" ns4:ExposureProgram="1" ns4:SensitivityType="2" ns4:RecommendedExposureIndex="500" ns4:ExposureBiasValue="0/1" ns4:MaxApertureValue="4/1" ns4:MeteringMode="5" ns4:FocalLength="55/1" ns4:CustomRendered="0" ns4:ExposureMode="1" ns4:WhiteBalance="0" ns4:SceneCaptureType="0" ns4:FocalPlaneXResolution="5184000/905" ns4:FocalPlaneYResolution="3456000/595" ns4:FocalPlaneResolutionUnit="2" ns4:DateTimeOriginal="2023-12-23T14:45:48.60" ns4:PixelXDimension="5184" ns4:PixelYDimension="3456" dc:format="image/x-canon-cr2" ns6:SerialNumber="172073148510" ns6:LensInfo="55/1 250/1 0/0 0/0" ns6:Lens="EF-S55-250mm f/4-5.6 IS II" ns6:LensID="54" ns6:LensSerialNumber="000030ffc4" ns6:ImageNumber="0" ns6:ApproximateFocusDistance="114/10" ns6:FlashCompensation="0/1" ns6:Firmware="1.1.0" ns7:LensModel="EF-S55-250mm f/4-5.6 IS II" ns8:DateCreated="2023-12-23T14:45:48.60" ns8:SidecarForExtension="CR2" ns8:EmbeddedXMPDigest="AD0ACF660F79AC49FD004B2DD3BC0461" ns9:DocumentID="7BA25FD933B2316B7FA9DD58B172041A" ns9:OriginalDocumentID="7BA25FD933B2316B7FA9DD58B172041A" ns9:InstanceID="xmp.iid:12f6e27d-59a0-bc42-bc9f-21434016a454" ns10:CameraProfile="Camera Landscape" ns10:LookName="" crs:Version="16.4" crs:ProcessVersion="15.4" crs:WhiteBalance="Custom" crs:Temperature="5550" crs:Tint="+11" crs:Exposure2012="+0.11" crs:Contrast2012="+13" crs:Highlights2012="-41" crs:Shadows2012="+27" crs:Whites2012="-36" crs:Blacks2012="-8" crs:Texture="+7" crs:Clarity2012="+1" crs:Dehaze="+9" crs:Vibrance="+13" crs:Saturation="0" crs:ParametricShadows="0" crs:ParametricDarks="0" crs:ParametricLights="0" crs:ParametricHighlights="0" crs:ParametricShadowSplit="25" crs:ParametricMidtoneSplit="50" crs:ParametricHighlightSplit="75" crs:Sharpness="40" crs:SharpenRadius="+1.5" crs:SharpenDetail="39" crs:SharpenEdgeMasking="16" crs:LuminanceSmoothing="21" crs:LuminanceNoiseReductionDetail="50" crs:LuminanceNoiseReductionContrast="0" crs:ColorNoiseReduction="25" crs:ColorNoiseReductionDetail="50" crs:ColorNoiseReductionSmoothness="50" crs:HueAdjustmentRed="0" crs:HueAdjustmentOrange="0" crs:HueAdjustmentYellow="0" crs:HueAdjustmentGreen="0" crs:HueAdjustmentAqua="0" crs:HueAdjustmentBlue="0" crs:HueAdjustmentPurple="0" crs:HueAdjustmentMagenta="0" crs:SaturationAdjustmentRed="0" crs:SaturationAdjustmentOrange="0" crs:SaturationAdjustmentYellow="0" crs:SaturationAdjustmentGreen="0" crs:SaturationAdjustmentAqua="0" crs:SaturationAdjustmentBlue="0" crs:SaturationAdjustmentPurple="0" crs:SaturationAdjustmentMagenta="0" crs:LuminanceAdjustmentRed="0" crs:LuminanceAdjustmentOrange="0" crs:LuminanceAdjustmentYellow="0" crs:LuminanceAdjustmentGreen="0" crs:LuminanceAdjustmentAqua="0" crs:LuminanceAdjustmentBlue="0" crs:LuminanceAdjustmentPurple="0" crs:LuminanceAdjustmentMagenta="0" crs:SplitToningShadowHue="236" crs:SplitToningShadowSaturation="21" crs:SplitToningHighlightHue="58" crs:SplitToningHighlightSaturation="25" crs:SplitToningBalance="0" crs:ColorGradeMidtoneHue="44" crs:ColorGradeMidtoneSat="36" crs:ColorGradeShadowLum="0" crs:ColorGradeMidtoneLum="0" crs:ColorGradeHighlightLum="0" crs:ColorGradeBlending="50" crs:ColorGradeGlobalHue="0" crs:ColorGradeGlobalSat="0" crs:ColorGradeGlobalLum="0" crs:AutoLateralCA="1" crs:LensProfileEnable="1" crs:LensManualDistortionAmount="0" crs:VignetteAmount="0" crs:DefringePurpleAmount="0" crs:DefringePurpleHueLo="30" crs:DefringePurpleHueHi="70" crs:DefringeGreenAmount="0" crs:DefringeGreenHueLo="40" crs:DefringeGreenHueHi="60" crs:PerspectiveUpright="0" crs:PerspectiveVertical="0" crs:PerspectiveHorizontal="0" crs:PerspectiveRotate="0.0" crs:PerspectiveAspect="0" crs:PerspectiveScale="100" crs:PerspectiveX="0.00" crs:PerspectiveY="0.00" crs:GrainAmount="0" crs:PostCropVignetteAmount="0" crs:ShadowTint="-6" crs:RedHue="-18" crs:RedSaturation="+12" crs:GreenHue="+16" crs:GreenSaturation="-10" crs:BlueHue="-17" crs:BlueSaturation="+6" crs:HDREditMode="0" crs:OverrideLookVignette="False" crs:ToneCurveName2012="Linear" crs:CameraProfile="Adobe Standard" crs:CameraProfileDigest="8F4BCAD6A71A9A16C5CECE7FB37BE896" crs:LensProfileSetup="Custom" crs:LensProfileName="Adobe (Canon EF-S 18-55mm f/3.5-5.6 IS II)" crs:LensProfileFilename="Canon EOS 50D (Canon EF-S 18-55mm f3.5-5.6 IS II) - RAW.lcp" crs:LensProfileDigest="DCD0C67967F80F728640FFA2A31FA08A" crs:LensProfileIsEmbedded="False" crs:LensProfileDistortionScale="100" crs:LensProfileVignettingScale="100" crs:HasSettings="True" crs:CropTop="0.07264" crs:CropLeft="0" crs:CropBottom="1" crs:CropRight="0.92736" crs:CropAngle="0" crs:CropConstrainToWarp="0" crs:HasCrop="True" crs:AlreadyApplied="False" crs:RawFileName="_MG_6002.CR2">
      
   
      <ns4:ISOSpeedRatings>
        
    
        <rdf:Seq>
          
     
          <rdf:li>500</rdf:li>
          
    
        </rdf:Seq>
        
   
      </ns4:ISOSpeedRatings>
      
   
      <ns4:Flash ns4:Fired="False" ns4:Return="0" ns4:Mode="2" ns4:Function="False" ns4:RedEyeMode="False"/>
      
   
      <dc:creator>
        
    
        <rdf:Seq>
          
     
          <rdf:li>JRMGraphy</rdf:li>
          
    
        </rdf:Seq>
        
   
      </dc:creator>
      
   
      <ns9:History>
        
    
        <rdf:Seq>
          
     
          <rdf:li ns12:action="edited" ns12:when="2024-07-23T22:27:38.091Z"/>
          
     
          <rdf:li ns12:action="saved" ns12:instanceID="xmp.iid:12f6e27d-59a0-bc42-bc9f-21434016a454" ns12:when="2024-12-16T13:37:37-06:00" ns12:softwareAgent="Adobe Lightroom 8.0 (Windows)" ns12:changed="/metadata"/>
          
    
        </rdf:Seq>
        
   
      </ns9:History>
      
   
      <crs:ToneCurvePV2012>
        
    
        <rdf:Seq>
          
     
          <rdf:li>0, 0</rdf:li>
          
     
          <rdf:li>255, 255</rdf:li>
          
    
        </rdf:Seq>
        
   
      </crs:ToneCurvePV2012>
      
   
      <crs:ToneCurvePV2012Red>
        
    
        <rdf:Seq>
          
     
          <rdf:li>0, 0</rdf:li>
          
     
          <rdf:li>255, 255</rdf:li>
          
    
        </rdf:Seq>
        
   
      </crs:ToneCurvePV2012Red>
      
   
      <crs:ToneCurvePV2012Green>
        
    
        <rdf:Seq>
          
     
          <rdf:li>0, 0</rdf:li>
          
     
          <rdf:li>255, 255</rdf:li>
          
    
        </rdf:Seq>
        
   
      </crs:ToneCurvePV2012Green>
      
   
      <crs:ToneCurvePV2012Blue>
        
    
        <rdf:Seq>
          
     
          <rdf:li>0, 0</rdf:li>
          
     
          <rdf:li>255, 255</rdf:li>
          
    
        </rdf:Seq>
        
   
      </crs:ToneCurvePV2012Blue>
      
   
      <crs:PointColors>
        
    
        <rdf:Seq>
          
     
          <rdf:li>-1.000000, -1.000000, -1.000000, -1.000000, -1.000000, -1.000000, -1.000000, -1.000000, -1.000000, -1.000000, -1.000000, -1.000000, -1.000000, -1.000000, -1.000000, -1.000000, -1.000000, -1.000000, -1.000000</rdf:li>
          
    
        </rdf:Seq>
        
   
      </crs:PointColors>
      
   
      <crs:Look>
        
    
        <rdf:Description crs:Name="Adobe Color" crs:Amount="1" crs:UUID="B952C231111CD8E0ECCF14B86BAA7077" crs:SupportsAmount="false" crs:SupportsMonochrome="false" crs:SupportsOutputReferred="false">
          
    
          <crs:Group>
            
     
            <rdf:Alt>
              
      
              <rdf:li xml:lang="x-default">Profiles</rdf:li>
              
     
            </rdf:Alt>
            
    
          </crs:Group>
          
    
          <crs:Parameters>
            
     
            <rdf:Description crs:Version="16.4" crs:ProcessVersion="15.4" crs:ConvertToGrayscale="False" crs:CameraProfile="Adobe Standard" crs:LookTable="E1095149FDB39D7A057BAB208837E2E1">
              
     
              <crs:ToneCurvePV2012>
                
      
                <rdf:Seq>
                  
       
                  <rdf:li>0, 0</rdf:li>
                  
       
                  <rdf:li>22, 16</rdf:li>
                  
       
                  <rdf:li>40, 35</rdf:li>
                  
       
                  <rdf:li>127, 127</rdf:li>
                  
       
                  <rdf:li>224, 230</rdf:li>
                  
       
                  <rdf:li>240, 246</rdf:li>
                  
       
                  <rdf:li>255, 255</rdf:li>
                  
      
                </rdf:Seq>
                
     
              </crs:ToneCurvePV2012>
              
     
              <crs:ToneCurvePV2012Red>
                
      
                <rdf:Seq>
                  
       
                  <rdf:li>0, 0</rdf:li>
                  
       
                  <rdf:li>255, 255</rdf:li>
                  
      
                </rdf:Seq>
                
     
              </crs:ToneCurvePV2012Red>
              
     
              <crs:ToneCurvePV2012Green>
                
      
                <rdf:Seq>
                  
       
                  <rdf:li>0, 0</rdf:li>
                  
       
                  <rdf:li>255, 255</rdf:li>
                  
      
                </rdf:Seq>
                
     
              </crs:ToneCurvePV2012Green>
              
     
              <crs:ToneCurvePV2012Blue>
                
      
                <rdf:Seq>
                  
       
                  <rdf:li>0, 0</rdf:li>
                  
       
                  <rdf:li>255, 255</rdf:li>
                  
      
                </rdf:Seq>
                
     
              </crs:ToneCurvePV2012Blue>
              
     
              <crs:LensBlur crs:Version="1" crs:Active="false" crs:FocalRange="0 0 100 100" crs:BlurAmount="50" crs:BokehShape="0" crs:BokehShapeDetail="0" crs:HighlightsThreshold="50" crs:HighlightsBoost="50" crs:CatEyeAmount="0" crs:CatEyeScale="100" crs:BokehAspect="0" crs:BokehRotation="0" crs:SphericalAberration="0"/>
              
     
            </rdf:Description>
            
    
          </crs:Parameters>
          
    
        </rdf:Description>
        
   
      </crs:Look>
      
  
      <dc:title>
        <rdf:Alt>
          <rdf:li xml:lang="x-default">The wing of an airplane flying over a mountain range under a cloudy sky.</rdf:li>
        </rdf:Alt>
      </dc:title>
      <dc:subject>
        <rdf:Bag>
          <rdf:li>mountain</rdf:li>
          <rdf:li>serene</rdf:li>
          <rdf:li>airplane</rdf:li>
          <rdf:li>range</rdf:li>
          <rdf:li>sky</rdf:li>
          <rdf:li>gray</rdf:li>
          <rdf:li>white</rdf:li>
          <rdf:li>cloudy</rdf:li>
        </rdf:Bag>
      </dc:subject>
    </rdf:Description>
    
 
  </rdf:RDF>
  

</x:xmpmeta>
